X: 33
T: Hei meimao de gu niang
L: 1/16
M: 2/4
K: G
D G2 G G2 c B [I:setbarnb 1]| 
B2> B2B4 | 
B B2 G G d c B | 
B A2 cB4 | 
B B2 G G d c B | 
B A2 cB4 | 
c c2 c c d c2 | 
B c B A B A G2 | 
A2 A A A c B A | 
G2 d2 d3 B | 
c c2 c c d c2 | 
B c B AG4 | 
A2 A A A c B A | 
G2> G2G4 |]

@@@ Tune index: 8701
